build/assets/img/svg/icon-arrow-2.svg

<svg width="96" height="96" viewBox="0 0 96 96" fill="none" xmlns="http://www.w3.org/2000/svg">
<path d="M86.3851 17.574L85.8492 19.0438C84.8509 18.7006 83.6465 18.3953 82.6481 18.0521L83.184 16.5823C84.1824 16.9256 85.3868 17.2308 86.3851 17.574ZM79.8941 15.7124L79.5642 17.1442C78.4771 16.9228 77.39 16.7014 76.3029 16.48L76.6327 15.0482C77.6026 15.1858 78.807 15.491 79.8941 15.7124ZM73.0766 14.5438L72.8639 16.0594C71.688 15.9598 70.5121 15.8602 69.5423 15.7226L69.6661 14.3289C70.8135 14.2228 71.9894 14.3224 73.0766 14.5438ZM66.1669 14.2358L66.1603 15.7134C65.2189 15.7815 64.0715 15.8876 63.1586 16.1613L62.9526 16.1993L62.7532 14.7597L62.9592 14.7217C63.9893 14.5317 65.1367 14.4257 66.1669 14.2358ZM59.1904 15.7328L59.5958 17.1345C58.5942 17.5301 57.5037 18.0475 56.6193 18.5269L55.9191 17.285C57.0095 16.7677 58.0999 16.2502 59.1904 15.7328ZM53.0281 19.2944L53.9343 20.4983C53.0784 21.1834 52.1338 21.9903 51.3951 22.7592L50.3113 21.799C51.1387 20.9083 51.9661 20.0175 53.0281 19.2944ZM49.3249 25.3555C48.732 26.4139 48.2279 27.3505 47.841 28.3709L46.4021 27.898C46.8777 26.7557 47.3534 25.6135 47.9463 24.5551L49.3249 25.3555ZM47.327 31.524C47.2667 31.8515 47.2952 32.0571 47.2349 32.3846C47.2316 33.1234 47.3456 33.9461 47.4596 34.7687L46.0173 35.0346C45.9034 34.2119 45.8782 33.2675 45.7642 32.4448C45.8245 32.1173 45.7675 31.706 45.739 31.5004L47.327 31.524ZM48.3274 37.9834C48.5587 38.8899 49.1132 39.8422 49.4902 41.0382L48.1049 41.7154C47.6107 40.4356 47.1734 39.5671 46.825 38.5767L48.3274 37.9834ZM50.8589 44.055C51.2962 44.9235 51.7619 45.9977 52.1389 47.1937L50.7536 47.8709C50.2879 46.7967 49.8222 45.7226 49.3849 44.8541L50.8589 44.055ZM53.2413 50.576C53.5295 51.8938 53.6719 52.9222 53.6369 54.1941L52.1662 54.2543C52.2297 53.188 52.0873 52.1597 51.8276 51.0476L53.2413 50.576ZM53.1798 57.7585C52.9102 58.8627 52.4346 60.005 51.7529 61.1853L50.4915 60.4687C50.9957 59.5321 51.4713 58.3898 51.7694 57.4912L53.1798 57.7585ZM48.5386 63.1488L49.6224 64.109C48.8838 64.8779 48.0564 65.7687 47.0229 66.6974L46.0278 65.6153C47.0613 64.6866 47.7999 63.9177 48.5386 63.1488ZM43.3429 67.5868L44.2491 68.7906C43.276 69.3919 42.4201 70.0769 41.2409 70.7162L40.5406 69.4743C41.5138 68.8731 42.4869 68.2718 43.3429 67.5868ZM37.5038 71.1942L38.2041 72.4361L37.3197 72.9155C36.6413 73.3569 35.8457 73.7145 35.1673 74.1559L34.4671 72.9141C35.1454 72.4727 35.9411 72.1151 36.6194 71.6736L37.5038 71.1942ZM31.4303 74.634L32.1306 75.8758C31.0686 76.5989 30.0955 77.2001 29.3283 77.7634L28.422 76.5595C29.3952 75.9583 30.3684 75.357 31.4303 74.634ZM25.794 78.9422L26.7891 80.0243C25.8444 80.8312 25.223 81.684 24.4844 82.4529L23.3118 81.6145C23.9331 80.7617 24.7606 79.871 25.794 78.9422ZM22.6487 85.2168C22.1446 86.1534 21.8749 87.2577 21.6053 88.362L20.1949 88.0947C20.3473 86.9066 20.8229 85.7643 21.2985 84.6221L22.6487 85.2168Z" fill="black"/>
<path d="M83.4258 11.6209L81.9387 12.4281L85.5855 18.7813L78.8057 22.1638L79.4219 23.5406L87.6887 19.3509L83.4258 11.6209Z" fill="black"/>
</svg>

<svg width="96" height="96" fill="none" xmlns="http://www.w3.org/2000/svg"><path d="M86.385 17.574l-.536 1.47c-.998-.343-2.203-.649-3.2-.992l.535-1.47c.998.344 2.203.649 3.201.992zm-6.49-1.862l-.33 1.432-3.262-.664.33-1.432c.97.138 2.174.443 3.261.664zm-6.818-1.168l-.213 1.515c-1.176-.1-2.352-.199-3.322-.336l.124-1.394c1.148-.106 2.323-.007 3.41.215zm-6.91-.308l-.007 1.477c-.941.069-2.088.175-3.001.448l-.206.038-.2-1.44.206-.037c1.03-.19 2.178-.296 3.208-.486zm-6.977 1.497l.406 1.401a28.682 28.682 0 00-2.977 1.393l-.7-1.242 3.271-1.552zm-6.162 3.561l.906 1.204c-.856.685-1.8 1.492-2.539 2.261l-1.084-.96c.828-.89 1.655-1.782 2.717-2.505zm-3.703 6.061c-.593 1.059-1.097 1.995-1.484 3.016l-1.439-.473c.476-1.142.951-2.285 1.544-3.343l1.379.8zm-1.998 6.169c-.06.328-.032.533-.092.86-.003.74.11 1.562.225 2.385l-1.443.266c-.114-.823-.139-1.767-.253-2.59.06-.328.003-.739-.025-.945l1.588.024zm1 6.46c.232.906.786 1.858 1.163 3.054l-1.385.677c-.494-1.28-.932-2.148-1.28-3.138l1.502-.594zm2.532 6.071c.437.868.903 1.943 1.28 3.139l-1.385.677c-.466-1.074-.932-2.148-1.37-3.017l1.475-.799zm2.382 6.521c.288 1.318.43 2.346.396 3.618l-1.47.06c.063-1.066-.08-2.094-.34-3.206l1.414-.472zm-.061 7.182c-.27 1.105-.745 2.247-1.427 3.427l-1.261-.716c.504-.937.98-2.08 1.277-2.978l1.41.267zm-4.641 5.39l1.083.961c-.738.769-1.566 1.66-2.6 2.588l-.994-1.082c1.033-.928 1.772-1.697 2.51-2.466zm-5.196 4.439l.906 1.204c-.973.6-1.829 1.286-3.008 1.925l-.7-1.242c.973-.6 1.946-1.202 2.802-1.887zm-5.84 3.607l.701 1.242-.884.48c-.679.44-1.474.799-2.153 1.24l-.7-1.242c.678-.441 1.474-.799 2.152-1.24l.885-.48zm-6.073 3.44l.7 1.242c-1.061.723-2.035 1.324-2.802 1.887l-.906-1.204a77.588 77.588 0 003.008-1.925zm-5.636 4.308l.995 1.082c-.945.807-1.566 1.66-2.305 2.429l-1.172-.838c.621-.853 1.449-1.744 2.482-2.673zm-3.145 6.275c-.504.936-.774 2.04-1.044 3.145l-1.41-.267c.152-1.188.628-2.33 1.104-3.473l1.35.595z" fill="#000"/><path d="M83.426 11.62l-1.487.808 3.647 6.353-6.78 3.383.616 1.377 8.267-4.19-4.263-7.73z" fill="#000"/></svg>
